src/images/icon/icon_color_applications.svg

<?xml version="1.0" encoding="UTF-8"?>
<svg width="48px" height="48px" viewBox="0 0 48 48" version="1.1" xmlns="http://www.w3.org/2000/svg" xmlns:xlink="http://www.w3.org/1999/xlink">
    <title>icon_color_applications</title>
    <g id="Dashboard" stroke="none" stroke-width="1" fill="none" fill-rule="evenodd">
        <g id="01-概览" transform="translate(-756.000000, -370.000000)">
            <g id="数据" transform="translate(244.000000, 264.000000)">
                <g id="编组-3备份" transform="translate(306.000000, 72.000000)">
                    <g id="编组-5" transform="translate(206.000000, 34.000000)">
                        <circle id="icon_color_applications" fill="#FFE9EA" cx="24" cy="24" r="24"></circle>
                        <g id="编组-15" transform="translate(12.000000, 12.000000)" fill="#FF6B6B">
                            <g id="编组-16" transform="translate(1.967095, 1.173551)">
                                <path d="M17.9004,14.3890345 L19.7017227,15.4109737 C20.1871719,15.6863117 20.1871719,16.1327228 19.7017227,16.4080608 L10.9118883,21.3934965 C10.4264391,21.6688345 9.63937051,21.6688345 9.15392136,21.3934965 L0.364086866,16.4080608 C-0.121362289,16.1327228 -0.121362289,15.6863117 0.364086866,15.4109737 L2.1648,14.3890345 L8.26588809,17.849673 C9.30214518,18.4374194 10.7636644,18.4374194 11.7999215,17.849673 L17.9004,14.3890345 Z" id="形状"></path>
                                <path d="M17.9004,9.27951723 L19.7017227,10.3014564 C20.1871719,10.5767944 20.1871719,11.0232056 19.7017227,11.2985436 L10.9118883,16.2839793 C10.4264391,16.5593173 9.63937051,16.5593173 9.15392136,16.2839793 L0.364086866,11.2985436 C-0.121362289,11.0232056 -0.121362289,10.5767944 0.364086866,10.3014564 L2.1648,9.27951723 L8.26588809,12.7401558 C9.30214518,13.3279021 10.7636644,13.3279021 11.7999215,12.7401558 L17.9004,9.27951723 Z" id="形状"></path>
                                <path d="M10.9118883,0.206503508 L19.7017227,5.1919392 C20.1871719,5.46727721 20.1871719,5.91368833 19.7017227,6.18902634 L10.9118883,11.174462 C10.4264391,11.4498 9.63937051,11.4498 9.15392136,11.174462 L0.364086866,6.18902634 C-0.121362289,5.91368833 -0.121362289,5.46727721 0.364086866,5.1919392 L9.15392136,0.206503508 C9.63937051,-0.0688345026 10.4264391,-0.0688345026 10.9118883,0.206503508 Z" id="矩形"></path>
                            </g>
                        </g>
                    </g>
                </g>
            </g>
        </g>
    </g>
</svg>

<svg height="48" viewBox="0 0 48 48" width="48" xmlns="http://www.w3.org/2000/svg"><g fill="none" fill-rule="evenodd"><circle cx="24" cy="24" fill="#ffe9ea" r="24"/><g fill="#ff6b6b" transform="translate(13.967095 13.173551)"><path d="m17.9004 14.3890345 1.8013227 1.0219392c.4854492.275338.4854492.7217491 0 .9970871l-8.7898344 4.9854357c-.4854492.275338-1.27251779.275338-1.75796694 0l-8.78983449-4.9854357c-.48544916-.275338-.48544916-.7217491 0-.9970871l1.80071313-1.0219392 6.10108809 3.4606385c1.03625709.5877464 2.49777631.5877464 3.53403341 0z"/><path d="m17.9004 9.27951723 1.8013227 1.02193917c.4854492.275338.4854492.7217492 0 .9970872l-8.7898344 4.9854357c-.4854492.275338-1.27251779.275338-1.75796694 0l-8.78983449-4.9854357c-.48544916-.275338-.48544916-.7217492 0-.9970872l1.80071313-1.02193917 6.10108809 3.46063857c1.03625709.5877463 2.49777631.5877463 3.53403341 0z"/><path d="m10.9118883.20650351 8.7898344 4.98543569c.4854492.27533801.4854492.72174913 0 .99708714l-8.7898344 4.98543566c-.4854492.275338-1.27251779.275338-1.75796694 0l-8.78983449-4.98543566c-.48544916-.27533801-.48544916-.72174913 0-.99708714l8.78983449-4.98543569c.48544915-.27533801 1.27251774-.27533801 1.75796694 0z"/></g></g></svg>
